!!!!SEGMENT: pl-kk--kk-i-367--001_pitoni-giuseppe-ottavio--christus-factus-est-pro-nobis.krn
!!!cenid: 17xx:1967
!!!COM: Pitoni, Giuseppe Ottavio
!!!COM-rismID: pe20503
!!!CDT: 1657/03/18-1743/02/01
!!!CNT: Italian
!!!OTL: Christus factus est pro nobis
!!!PDT:
!!!AGN: Sacred
!!!SMS-siglum: PL-Kk
!!!SMS-shelfmark: Kk.I.367
!!!SMS-shelfwork: 001 W
!!!SMS-variant:
!!!SMS-altvar:
!!!NIFC-rismSourceID: 1001142952
!!!NIFC-islandoraID: pl-kk:6007
!!!URL-pdf-islandora: https://repozytorium.nifc.pl/islandora/object/pl-kk%3A6007/datastream/PDF/view
!!!URL-scan: https://polish.musicsources.pl/pl/lokalizacje/galeria/rekopisy/5980 @EN{Scan on Polish Music Sources Website} @PL{Skany w portalu Dziedzictwo Muzyki Polskiej w otwartym dostępie}
!!!ONB-nifc: UWAGA: utwory w zbiorze: 1. Christus factus est pro nobis, 2. Miserere Mei Deus (wieloodcinkowy)
!!!AIN: 1 empty 2 tenor
!!!key:
**kern	**text	**kern	**text	**kern	**text
*part3	*part3	*part2	*part2	*part1	*part1
*staff3	*staff3	*staff2	*staff2	*staff1	*staff1
*Iempty	*	*Itenor	*	*Itenor	*
*I"Baſso.	*	*I"Tenore 2do	*	*I"Tenore Primo.	*
*I'B	*	*I'T 2	*	*I'T 1	*
*clefF4	*	*clefC4	*	*clefC4	*
*k[]	*	*k[]	*	*k[]	*
*d:	*	*d:	*	*d:	*
*M2/2	*	*M2/2	*	*M2/2	*
*met(c|)	*	*met(c|)	*	*met(c|)	*
!LO:TX:t=P:problem=inaczej rozmieszczone kreski taktowe	!	!LO:TX:t=P:problem=inaczej rozmieszczone kreski taktowe	!	!LO:TX:a:B:t=Adagio	!
=1-	=1-=1-	=1-	=1-	=1-	=1-
!LO:TX:t=P:problem=kreska pseudotaktowa	!	!	!	!LO:TX:t=P:problem=kreska pseudotaktowa	!
1A\	Chris-	1e\	Chris-	1c#X\	Chri-
!LO:TX:t=P:problem=kreska pseudotaktowa	!	!LO:TX:t=P:problem=kreska pseudotaktowa	!	!LO:TX:t=P:problem=kreska pseudotaktowa	!
1A\	-tus	1e\	-tus	1cny\	-stus
=2-	=2-	=2-	=2-	=2-	=2-
*2\right	*	*2\right	*	*2\right	*
2A\	fac-	2f\	fac-	2d\	fac-
!	!	!	!	!LO:TX:t=P:problem=kreska pseudotaktowa	!
2A\	-tus	2e\	-tus	2c#X\	-tus
!LO:TX:t=P:problem=kreska pseudotaktowa	!	!LO:TX:t=P:problem=kreska pseudotaktowa	!	!LO:TX:t=P:problem=kreska pseudotaktowa	!
1B-X\	est	1d\	est	1d\	est
=3-	=3-	=3-	=3-	=3-	=3-
!	!	!	!	!LO:TX:t=P:problem=kreska pseudotaktowa	!
1A\	pro	1e\	pro	1c#X\	pro
!	!	!LO:TX:t=P:problem=kreska pseudotaktowa	!	!	!
1F\	no-	1A\	no-	1d\	no-
=4-	=4-	=4-	=4-	=4-	=4-
!LO:TX:t=P:problem=kreska pseudotaktowa	!	!	!	!LO:TX:t=P:problem=kreska pseudotaktowa	!
1A\	-bis	1A\	-bis	1c#X\	-bis
2D\	o-	2A/	o-	2d\	o-
1D\	-be-	1A\	-be-	1d\	-be-
=5-	=5-	=5-	=5-	=5-	=5-
!	!	!LO:TX:t=P:problem=kreska pseudotaktowa	!	!	!
2F\	-di-	2A/	-di-	2d\	-di-
!LO:TX:t=P:problem=kreska pseudotaktowa	!	!LO:TX:t=P:problem=kreska pseudotaktowa	!	!	!
1E\	-ens	1G#X/	-ens	1e\	-ens
=6-	=6-	=6-	=6-	=6-	=6-
2A\	us-	2A/	us-	2c#X\	us-
1B-X\	.	1d\	.	1d\	.
!LO:TX:t=P:problem=kreska pseudotaktowa	!	!LO:TX:t=P:problem=kreska pseudotaktowa	!	!LO:TX:t=P:problem=kreska pseudotaktowa	!
2A\	-que	2c#X\	-que	2e\	-que
!	!	!LO:LB:g=original	!	!LO:LB:g=original	!
=7-	=7-	=7-	=7-	=7-	=7-
!	!	!	!	!LO:TX:t=P:problem=kreska pseudotaktowa	!
2Bny\	ad	2d\	ad	1d\	ad
2F#X\	.	2A\	.	.	.
!	!	!LO:TX:t=P:problem=kreska pseudotaktowa	!	!LO:TX:t=P:problem=kreska pseudotaktowa	!
1G\	mor-	1B-X\	mor-	1d\	mor-
=8-	=8-	=8-	=8-	=8-	=8-
!LO:TX:t=P:problem=kreska pseudotaktowa	!	!LO:TX:t=P:problem=kreska pseudotaktowa	!	!	!
0A\	.	0A\	.	2c#X\	.
.	.	.	.	1d\	.
!	!	!	!	!LO:TX:t=P:problem=kreska pseudotaktowa	!
.	.	.	.	2c#X\	.
=9-	=9-	=9-	=9-	=9-	=9-
!LO:TX:t=P:problem=kreska pseudotaktowa podwójna	!	!LO:TX:t=P:problem=kreska pseudotaktowa podwójna	!	!LO:TX:t=P:problem=kreska pseudotaktowa	!
0D\;	-tem	0A\;	-tem	0d\;	-tem
=10-	=10-	=10-	=10-	=10-	=10-
!	!	!	!	!LO:TX:t=P:problem=kreska pseudotaktowa	!
1A\	mor-	1c#X\	mor-	1e\	mor-
2A\	-tem	2cny\	-tem	2e\	-tem
1F#X\	au-	1A\	au-	1d\	au-
=11-	=11-	=11-	=11-	=11-	=11-
!LO:TX:t=P:problem=kreska pseudotaktowa	!	!LO:TX:t=P:problem=kreska pseudotaktowa	!	!LO:TX:t=P:problem=kreska pseudotaktowa	!
2G\	-tem	2B-X\	-tem	2d\	-tem
!	!	!LO:TX:t=P:problem=kreska pseudotaktowa	!	!	!
1C#X/	Cru-	0A\	Cru-	1e\	Cru-
=12-	=12-	=12-	=12-	=12-	=12-
!LO:TX:t=P:problem=kreska pseudotaktowa	!	!	!	!LO:TX:t=P:problem=kreska pseudotaktowa	!
1D\	.	.	.	0d\	.
1G\	.	1B-X\	.	.	.
=13-	=13-	=13-	=13-	=13-	=13-
!	!	!LO:TX:t=P:problem=kreska pseudotaktowa	!	!	!
1A\	.	1A\	.	1c#X\	.
!LO:TX:t=P:problem=kreska pseudotaktowa podwójna	!	!LO:TX:t=P:problem=kreska pseudotaktowa podwójna	!	!LO:TX:t=P:problem=kreska pseudotaktowa podwójna	!
0D\;	-cis	0A\;	-cis	0d\;	-cis
=14-	=14-	=14-	=14-	=14-	=14-
2.A\	Pro-	2.c#X\	Pro-	2.e\	Pro-
!LO:TX:t=P:problem=kreska pseudotaktowa	!	!	!	!	!
4A\	-pter	4c#\	-pter	4e\	-(pter)
!LO:LB:g=original	!	!	!	!	!
=15-	=15-	=15-	=15-	=15-	=15-
2A\	quod	2c#\	q(uod)	2e\	q(uod)
!	!	!LO:TX:t=P:problem=kreska pseudotaktowa	!	!	!
2Fny\	et	2d\	et	2f\	et
!	!	!	!	!LO:LB:g=original	!
1G\	De-	1Bny\	De-	1d\	De-
=16-	=16-	=16-	=16-	=16-	=16-
2A,<\	-us	2A/	-us	2c#X\	-us
!LO:TX:t=P:problem=kreska pseudotaktowa	!	!LO:TX:t=P:problem=kreska pseudotaktowa	!	!LO:TX:t=P:problem=kreska pseudotaktowa	!
2A\	e-	2c#X\	e-	2e\	e-
2D\	-xal-	2d\	-xal-	2f\	-xal-
1A\	-ta-	1c#X\	-ta-	1e\	-ta-
=17-	=17-	=17-	=17-	=17-	=17-
!LO:TX:t=P:problem=kreska pseudotaktowa	!	!LO:TX:t=P:problem=kreska pseudotaktowa	!	!LO:TX:t=P:problem=kreska pseudotaktowa	!
2A\	-vit	2c#\	-vit	2e\	-vit
!	!	!	!	!LO:TX:t=P:problem=kreska pseudotaktowa	!
1D\	il-	1d\	il-	1f\	il-
=18-	=18-	=18-	=18-	=18-	=18-
2Cny/	.	2Gny/	.	2e\	-lum
!	!	!LO:TX:t=P:problem=kreska pseudotaktowa	!	!	!
1F\,<	-lum	2A/	.	1cny\,<	.
.	.	2A,<\	-lum	.	.
!LO:TX:t=P:problem=kreska pseudotaktowa	!	!	!	!LO:TX:t=P:problem=kreska pseudotaktowa	!
2F\	et	2A\	et	2c\	et
=19-	=19-	=19-	=19-	=19-	=19-
2B-X\	de-	2B-X\	de-	2d\	de-
!LO:SIC:o:v=wykreślone dwa dźwięki	!	!	!	!	!
!LO:TX:b:t=f	!	!LO:TX:t=P:problem=kreska pseudotaktowa	!	!	!
2F\	-dit	2A\	-dit	2c\	-dit
!	!	!	!	!LO:TX:t=P:problem=kreska pseudotaktowa	!
1c\	il-	1cny\	il-	1e\	il-
=20-	=20-	=20-	=20-	=20-	=20-
2c\	-li	2c\	-li	2e\	-li
!LO:TX:t=P:problem=kreska pseudotaktowa	!	!LO:TX:t=P:problem=kreska pseudotaktowa	!	!	!
2C/	no-	2c\	no-	1e\	no-
!LO:LB:g=original	!	!	!	!	!
2C/	.	2c\	.	.	.
!	!	!LO:TX:t=P:problem=kreska pseudotaktowa	!	!LO:TX:t=P:problem=kreska pseudotaktowa	!
2C/	-men	2c\	-men	2e\	-men
!	!	!LO:LB:g=original	!	!	!
=21-	=21-	=21-	=21-	=21-	=21-
2E\	quod	2B\	q(uod)	2e\	q(uod)
!LO:TX:t=P:problem=kreska pseudotaktowa	!	!LO:TX:t=P:problem=kreska pseudotaktowa	!	!LO:TX:t=P:problem=kreska pseudotaktowa	!
1.A\	est	2A\	est	1.c\	est
.	.	1A\,<	.	.	.
=22-	=22-	=22-	=22-	=22-	=22-
2G\	q(uod)	2Bn\	quod	2d\	quod
!	!	!LO:TX:t=P:problem=kreska pseudotaktowa	!	!	!
2c\	est	2c\	e(st)	2e\	e(st)
2C/	su-	2c\	su-	2e\	su-
2G,<\	-per	2B-X\	-per	(4d\	-per
!	!	!	!	!LO:TX:t=P:problem=kreska pseudotaktowa	!
.	.	.	.	4e\)	.
=23-	=23-	=23-	=23-	=23-	=23-
!	!	!LO:TX:t=P:problem=kreska pseudotaktowa	!	!	!
1F\	om-	1A\	om-	1f\	om-
!	!	!	!	!LO:TX:t=P:problem=kreska pseudotaktowa	!
1B-X\	-ne	1B-X\	-ne	1d\	-ne
=24-	=24-	=24-	=24-	=24-	=24-
!	!	!LO:TX:t=P:problem=kreska pseudotaktowa	!	!	!
1G\	no-	1Bny\	no-	1d\	no-
!	!	!LO:TX:t=P:problem=kreska pseudotaktowa	!	!	!
0A\	.	0A\	.	2c#X\	.
!	!	!	!	!LO:TX:t=P:problem=kreska pseudotaktowa	!
.	.	.	.	2d\	.
=25-	=25-	=25-	=25-	=25-	=25-
.	.	.	.	2d\	.
.	.	.	.	2c#X\	.
00D;\	-men	00A;\	-men	00d;\	-men.
==	==	==	==	==	==
*-	*-	*-	*-	*-	*-
!!!system-decoration: [(s1,s2,s3)]
!!!RDF**kern: > = above
!!!RDF**kern: < = below
!!!EED: Leszek Kubiak
!!!EEV: 2021-02-24
!!!ENC: Tomasz Grochalski
!!!END: 2021-02-06
